Simply-Purple-Circles/scalable/apps/preferences-system-windows.svg

<svg xmlns="http://www.w3.org/2000/svg" width="48" height="48" viewBox="0 0 12.7 12.7"><path fill="#963996" d="M6.34.07a6.29 6.29 0 0 0-6.29 6.3 6.29 6.29 0 0 0 6.3 6.28 6.29 6.29 0 0 0 6.28-6.29A6.29 6.29 0 0 0 6.34.07zm-.01.94a5.4 5.4 0 0 1 5.4 5.4 5.4 5.4 0 0 1-5.4 5.41 5.4 5.4 0 0 1-5.41-5.4A5.4 5.4 0 0 1 6.32 1zM5.07 2.68a.34.34 0 0 0-.34.35v2.21H2.85a.34.34 0 0 0-.34.34v4.1a.34.34 0 0 0 .34.34h4.78a.34.34 0 0 0 .34-.34V7.47l1.88-.01a.34.34 0 0 0 .34-.34v-4.1a.34.34 0 0 0-.34-.34H5.07zm0 1.11h4.77c.05 0 .1.04.1.09v3.24a.09.09 0 0 1-.1.08H7.97V5.59a.34.34 0 0 0-.34-.34H4.97l.02-1.36c0-.05.03-.09.08-.09zM2.85 6.35h4.78c.05 0 .08.04.08.09v3.23a.09.09 0 0 1-.08.09H2.86a.09.09 0 0 1-.1-.08V6.44c0-.05.05-.09.1-.09z"/></svg>

<?xml version="1.0" encoding="UTF-8" standalone="no"?>
<svg
   xmlns:dc="http://purl.org/dc/elements/1.1/"
   xmlns:cc="http://creativecommons.org/ns#"
   xmlns:rdf="http://www.w3.org/1999/02/22-rdf-syntax-ns#"
   xmlns:svg="http://www.w3.org/2000/svg"
   xmlns="http://www.w3.org/2000/svg"
   xmlns:sodipodi="http://sodipodi.sourceforge.net/DTD/sodipodi-0.dtd"
   xmlns:inkscape="http://www.inkscape.org/namespaces/inkscape"
   width="48"
   height="48"
   viewBox="0 0 12.7 12.7"
   version="1.1"
   id="svg4"
   sodipodi:docname="preferences-system-windows.svg"
   inkscape:version="0.92.4 (5da689c313, 2019-01-14)">
  <metadata
     id="metadata10">
    <rdf:RDF>
      <cc:Work
         rdf:about="">
        <dc:format>image/svg+xml</dc:format>
        <dc:type
           rdf:resource="http://purl.org/dc/dcmitype/StillImage" />
        <dc:title></dc:title>
      </cc:Work>
    </rdf:RDF>
  </metadata>
  <defs
     id="defs8" />
  <sodipodi:namedview
     pagecolor="#ffffff"
     bordercolor="#666666"
     borderopacity="1"
     objecttolerance="10"
     gridtolerance="10"
     guidetolerance="10"
     inkscape:pageopacity="0"
     inkscape:pageshadow="2"
     inkscape:window-width="1087"
     inkscape:window-height="480"
     id="namedview6"
     showgrid="false"
     inkscape:zoom="4.9166667"
     inkscape:cx="2.1355932"
     inkscape:cy="24"
     inkscape:window-x="0"
     inkscape:window-y="25"
     inkscape:window-maximized="0"
     inkscape:current-layer="svg4" />
  <path
     d="M 6.34,0.07 A 6.29,6.29 0 0 0 0.05,6.37 6.29,6.29 0 0 0 6.35,12.65 6.29,6.29 0 0 0 12.63,6.36 6.29,6.29 0 0 0 6.34,0.07 Z M 6.33,1.01 a 5.4,5.4 0 0 1 5.4,5.4 5.4,5.4 0 0 1 -5.4,5.41 A 5.4,5.4 0 0 1 0.92,6.42 5.4,5.4 0 0 1 6.32,1 Z M 5.07,2.68 A 0.34,0.34 0 0 0 4.73,3.03 V 5.24 H 2.85 A 0.34,0.34 0 0 0 2.51,5.58 v 4.1 a 0.34,0.34 0 0 0 0.34,0.34 H 7.63 A 0.34,0.34 0 0 0 7.97,9.68 V 7.47 L 9.85,7.46 A 0.34,0.34 0 0 0 10.19,7.12 V 3.02 A 0.34,0.34 0 0 0 9.85,2.68 Z m 0,1.11 h 4.77 c 0.05,0 0.1,0.04 0.1,0.09 V 7.12 A 0.09,0.09 0 0 1 9.84,7.2 H 7.97 V 5.59 A 0.34,0.34 0 0 0 7.63,5.25 H 4.97 L 4.99,3.89 C 4.99,3.84 5.02,3.8 5.07,3.8 Z M 2.85,6.35 h 4.78 c 0.05,0 0.08,0.04 0.08,0.09 V 9.67 A 0.09,0.09 0 0 1 7.63,9.76 H 2.86 A 0.09,0.09 0 0 1 2.76,9.68 V 6.44 c 0,-0.05 0.05,-0.09 0.1,-0.09 z"
     id="path2"
     inkscape:connector-curvature="0"
     style="fill:#963996" />
</svg>
